X: 6039
T: Cape Breton Fiddlers' Society's Welcome To The Shetland Islands, The
R: reel
M: 4/4
K: Amajor
EC(3CCC DCB,C|A,B,CE FECE|FBBA BcBA|Bffe f(3fffg|
ac(3ccc eA(3AAA|cBAF EC(3CCC|FGAF Eaaf|1 ecBc A2AF:|2 ecBc A2fg||
|:ae(3eee efed|ce(3eee fece|bffe fgfe|defd B2fg|
ae(3eee efed|ce(3eee fece|1 fdge afed|cdBc A2fg:|2 fdec dBcA|Bagf eAGF||
"variations"
|:EC(3CCC DCB,C|(3CCC3B, CE(3EEE|FBBA B2AB|cffe f(3fffg|
ac(3ccc ecAB|cBAF EA,CE|FAAF Eagf|1 ecdB A2AF:|2 ecdB Aefg||
|:aeed efed|cAce aece|bffe fgfe|defd Befg|
aeed efed|cAce aece|1 fAgA afed|cdBc Aefg:|2 fAgA afec|Bagf edcB||

